X:156
T:Faral O'Gara
M:4/4
L:1/8
R:reel
K:D
B,|A,DD2 A,DFA|BFAF EFAc|dBcA (3Bcd AF|GEFD EDCB,|
A,DD2 A,DFA|BFAF EFAc|dBcA (3Bcd AF|GFEA FDD:|
e|fdd2 fdae|fagf edBc|dBBA Bcde|fdgf e2de|
[1 fdd2 fdae|fagf edBc|dBBA (3Bcd AF|GFEA FDD:|
[2 fagf edBc|dBBA BAFD|A,DD2 A,DFA|BFAF D3||
